X:47
T:Fight about the fire side. 2voices. Dix.47
M:C|
L:1/8
Q:1/4=120
S:Anon. MS dated 1811, from Dixon collection, Holton le Moor, Lincs.
R:reel
N:Repeat signs added at start
C:MS attributes Gow
O:England;Lincolnshire;Holton le Moor
Z:vmp.R.Greig 2012 <http://www.village-music-project.org.uk>
K:C
[V:1]|:c|GcEc Dd-dc|GcEc GcEc|FcEc DddB|cGcF ECC:|!
[V:2]|:z|C,2C,2D,2D,2|C,2C,2C,2C,2|D,2C,2G,,2G,2|E,2F,2C,2 C,:|!
[V:1]|:f|e<cg>c eddf|ecgc acgc|fage dcde|GAcd {f}e2 df|!
[V:2]|:z|C2C2G,2G,,2|C,2E,2F,2E,2|D,2C,2G,,2G,,2|C,2G,2C,2G,2|!
[V:1]e<cg>c eddf|ecgc acgc|fage “tr”d>cde|GAcd {cd}e2dc”$”:|
[V:2]C2C2G,2G,2|C,2E,2F,2E,2|D,2C,2G,,2G,,2|C,2G,,2[C,2C,,2][C,2C,,2]”$”:|

